X:1
T:Title
%%score 1 2 3
L:1/8
Q:1/4=70
M:4/8
K:Bb
V:1 treble nm="Flute, Soprano"
V:2 treble nm="Grand Piano, Staff-1"
V:3 bass nm="Choir Pad, Because It Is Christmas Time"
V:1
 FFG>F | G/A/B/G/A z | ccd>c | c/B/d/B/F z | FFG>F | G/A/B/G<AB/ | cc/>c/dc | B3 z | BBAG | GF d2 | %10
w: By~Edmund~Simon~Lorenz * * *||||||||||
 dccB/A/ | BFF z | BBAG | GFd>d | d/c/c/B/AG | F3 z | FFG>F | G/A/B/G/A z | ccd>c | c/B/d/B/F z | %20
w: ||||||||||
 FFG>F | G/A/B/G<AB/ | cc/>c/dc | B3 z | BBAG | GF d2 | dccB/A/ | BFF z | BBAG | GFd>d | %30
w: ||||||||||
 d/c/c/B/AG | F3 z | FFG>F | G/A/B/G/A z | ccd>c | c/B/d/B/F z | FFG>F | G/A/B/G<AB/ | cc/>c/dc | %39
w: |||||||||
 B3 z | BBAG | GF d2 | dccB/A/ | BFF z | BBAG | GFd>d | d/c/c/B/AG | F3 z | FFG>F | G/A/B/G/A z | %50
w: |||||||||||
 ccd>c | c/B/d/B/F z | FFG>F | G/A/B/G<AB/ | cc/>c/dc | B3 z |] %56
w: ||||||
V:2
 [DF][DF][DG]>[DG] | [DG]/[DA]/[DB]/[DA]/[EA] z | [EAc][EAc][EAd]>[EAc] | %3
 [Ec]/[DB]/[Fd]/[DB]/[DF][CE]/[B,D]/ | [DF][DF][DG]>[DF] | [DG]/[DA]/[DB]/[DG]<[EA][DFB]/ | %6
 [Ec][Ec]/>[Ec]/[Fd][Ec] | [DB]3 z | [GB][GB][FA][EG] | [EG][DF][Fd] z | [Bd][Ac][Ac][DB]/[CA]/ | %11
 [DB][DF][DF] z | [GB][GB][FA][EG] | [EG][DF][Bd]>[Bd] | [Bd]/[Ac]/[Ac]/[GB]/[FA][CG] | [A,F]3 z | %16
 [DF][DF][DG]>[DG] | [DG]/[DA]/[DB]/[DA]/[EA] z | [EAc][EAc][EAd]>[EAc] | %19
 [Ec]/[DB]/[Fd]/[DB]/[DF][CE]/[B,D]/ | [DF][DF][DG]>[DF] | [DG]/[DA]/[DB]/[DG]<[EA][DFB]/ | %22
 [Ec][Ec]/>[Ec]/[Fd][Ec] | [DB]3 z | [GB][GB][FA][EG] | [EG][DF][Fd] z | [Bd][Ac][Ac][DB]/[CA]/ | %27
 [DB][DF][DF] z | [GB][GB][FA][EG] | [EG][DF][Bd]>[Bd] | [Bd]/[Ac]/[Ac]/[GB]/[FA][CG] | [A,F]3 z | %32
 [DF][DF][DG]>[DG] | [DG]/[DA]/[DB]/[DA]/[EA] z | [EAc][EAc][EAd]>[EAc] | %35
 [Ec]/[DB]/[Fd]/[DB]/[DF][CE]/[B,D]/ | [DF][DF][DG]>[DF] | [DG]/[DA]/[DB]/[DG]<[EA][DFB]/ | %38
 [Ec][Ec]/>[Ec]/[Fd][Ec] | [DB]3 z | [GB][GB][FA][EG] | [EG][DF][Fd] z | [Bd][Ac][Ac][DB]/[CA]/ | %43
 [DB][DF][DF] z | [GB][GB][FA][EG] | [EG][DF][Bd]>[Bd] | [Bd]/[Ac]/[Ac]/[GB]/[FA][CG] | [A,F]3 z | %48
 [DF][DF][DG]>[DG] | [DG]/[DA]/[DB]/[DA]/[EA] z | [EAc][EAc][EAd]>[EAc] | %51
 [Ec]/[DB]/[Fd]/[DB]/[DF][CE]/[B,D]/ | [DF][DF][DG]>[DF] | [DG]/[DA]/[DB]/[DG]<[EA][DFB]/ | %54
 [Ec][Ec]/>[Ec]/[Fd][Ec] | [DB]3 z |] %56
V:3
 B,,F,B,,F, | B,,F,C,F, | F,,C,F,,C, | B,,F,B,,F, | B,,F,B,,F, | B,,F,B,,F, | F,,F,F,,F, | %7
 B,,F,B,, z | C,B,E,B, | B,,B,B,,B, | F,,F,F,,F, | B,,F,B,,B, | C,B,C,B, | B,,B,B,,B, | C,CC,C,, | %15
 F,,F,F,, z | B,,F,B,,F, | B,,F,C,F, | F,,C,F,,C, | B,,F,B,,F, | B,,F,B,,F, | B,,F,B,,F, | %22
 F,,F,F,,F, | B,,F,B,, z | C,B,E,B, | B,,B,B,,B, | F,,F,F,,F, | B,,F,B,,B, | C,B,C,B, | %29
 B,,B,B,,B, | C,CC,C,, | F,,F,F,, z | B,,F,B,,F, | B,,F,C,F, | F,,C,F,,C, | B,,F,B,,F, | %36
 B,,F,B,,F, | B,,F,B,,F, | F,,F,F,,F, | B,,F,B,, z | C,B,E,B, | B,,B,B,,B, | F,,F,F,,F, | %43
 B,,F,B,,B, | C,B,C,B, | B,,B,B,,B, | C,CC,C,, | F,,F,F,, z | B,,F,B,,F, | B,,F,C,F, | F,,C,F,,C, | %51
 B,,F,B,,F, | B,,F,B,,F, | B,,F,B,,F, | F,,F,F,,F, | B,,F,B,, z |] %56

